public/game/menu.svg

<svg width="55" height="43" viewBox="0 0 55 43" fill="none" xmlns="http://www.w3.org/2000/svg">
<path d="M41.8159 0.113623H3.10458C-1.03486 -0.0102012 -1.03486 4.91917 3.10458 4.79534H41.6616C45.7258 4.91917 45.8838 0.113623 41.8196 0.113623H41.8159ZM3.10458 18.8346C-0.876809 18.8346 -0.876809 23.5134 3.10458 23.5134H24.9307C28.9949 23.5134 28.9949 18.8346 24.9307 18.8346H3.10458ZM3.10458 37.5556C-0.876809 37.5556 -0.876809 42.2344 3.10458 42.2344H52.014C55.9953 42.2344 55.9953 37.5556 52.014 37.5556H3.10458Z" fill="white"/>
</svg>

<svg width="55" height="43" fill="none" xmlns="http://www.w3.org/2000/svg"><path d="M41.816.114H3.105c-4.14-.124-4.14 4.805 0 4.681h38.557c4.064.124 4.222-4.681.158-4.681h-.004ZM3.105 18.834c-3.982 0-3.982 4.68 0 4.68H24.93c4.064 0 4.064-4.68 0-4.68H3.105Zm0 18.722c-3.982 0-3.982 4.678 0 4.678h48.909c3.981 0 3.981-4.678 0-4.678H3.104Z" fill="#fff"/></svg>
